X:263
T: EINEN GOLDNEN WANDERSTAB
N: B0742
O: Europa, Mitteleuropa, Deutschland, Hochwald, Bruchweiler
R: Moral - Lied, religioes
M: 3/4
L: 1/8
K: C
G,G, | C2C2EC | G,4
E,G, | F,2F,E,F,G, | E,4
G,G, | C2C2EC | G,4
E,G, | F,2F,E,F,G, | E,4
G,F, | E,2E,2E,F, | A,G,G,2
G,F, | E,2E,2E,F, | G,4
G,G, | C2C2EC | G,4
E,G, | F,2F,E,F,G, | E,4

@@@ Tune index: 2481
